icons/thermometer_digital.svg

<svg width="48" height="48" viewBox="0 0 48 48" fill="none" xmlns="http://www.w3.org/2000/svg">
<path d="M35.9722 39.531L34.1051 40.7237L35.8941 43.5244C36.2235 44.04 36.9084 44.1909 37.424 43.8616C37.9396 43.5322 38.0906 42.8473 37.7612 42.3317L35.9722 39.531Z" fill="black"/>
<path d="M24.0566 20.1068L19.1475 12.4217L16.5858 14.0581L21.4949 21.7431L24.0566 20.1068Z" fill="black"/>
<path fill-rule="evenodd" clip-rule="evenodd" d="M33.0325 39.0356L33.1329 39.1926L35 37.9999L34.8998 37.8429C27.7957 26.698 27.7994 24.1659 27.8014 22.7512C27.8019 22.4078 27.8023 22.1303 27.7009 21.8113C27.5373 21.297 27.4325 20.8745 27.338 20.4937C27.1315 19.6613 26.9743 19.0276 26.3605 18.0668L17.8766 4.78566C17.282 3.85479 16.0454 3.58222 15.1145 4.17684L10.8004 6.93265C9.8695 7.52727 9.59693 8.76392 10.1915 9.69478L18.6753 22.976C19.2891 23.9368 19.7979 24.3458 20.4664 24.8832C20.7722 25.1291 21.1114 25.4017 21.5094 25.7664C21.7562 25.9925 22.0084 26.1088 22.3206 26.2526C23.606 26.845 25.9077 27.9056 33.0325 39.0356ZM11.877 8.61812L16.1912 5.86231L17.8897 8.52135L13.5708 11.2698L11.877 8.61812ZM14.6475 12.9552L18.9664 10.2068L24.675 19.1435C25.1094 19.8235 25.2045 20.2001 25.3969 20.9754L25.3997 20.9866C25.4939 21.3662 25.6112 21.8392 25.7937 22.4137L25.7948 22.4225L25.7961 22.436C25.7978 22.4567 25.7995 22.4888 25.8005 22.5416C25.8015 22.5973 25.8015 22.6585 25.8014 22.7484C25.8001 23.6389 25.8333 24.8144 26.702 27.0689C25.0206 25.3331 23.9668 24.8091 23.1577 24.4362C23.076 24.3986 23.0204 24.3729 22.9703 24.3486C22.9227 24.3255 22.8944 24.3104 22.8763 24.3002C22.8739 24.2988 22.8716 24.2975 22.8696 24.2964C22.8636 24.2929 22.8598 24.2905 22.8575 24.289C22.4131 23.882 22.0333 23.5767 21.7286 23.3317L21.7195 23.3244C21.0969 22.824 20.7952 22.5793 20.3608 21.8993L14.6475 12.9552Z" fill="black"/>
</svg>

<svg
  xmlns="http://www.w3.org/2000/svg"
  width="24"
  height="24"
  viewBox="0 0 24 24"
  fill="none"
  stroke="currentColor"
  stroke-width="2"
  stroke-linecap="round"
  stroke-linejoin="round"
>
  <path d="m35.972 39.531-1.867 1.193 1.79 2.8a1.108 1.108 0 0 0 1.866-1.192z" />
  <path d="m24.057 20.107-4.91-7.685-2.561 1.636 4.909 7.685z" />
  <path
    fill-rule="evenodd"
    d="m33.033 39.036.1.157L35 38l-.1-.157C27.796 26.698 27.8 24.166 27.8 22.75c0-.343.001-.62-.1-.94-.164-.514-.268-.936-.363-1.317-.207-.833-.364-1.466-.978-2.427L17.877 4.786a2 2 0 0 0-2.762-.61L10.8 6.934a2 2 0 0 0-.609 2.762l8.484 13.281c.614.96 1.123 1.37 1.791 1.907.306.246.645.519 1.043.883.247.227.5.343.812.487 1.285.592 3.587 1.653 10.711 12.783M11.877 8.618l4.314-2.756 1.699 2.66-4.32 2.748zm2.77 4.337 4.32-2.748 5.708 8.936c.434.68.53 1.057.722 1.832l.003.012c.094.38.211.852.394 1.427v.008l.002.014q.003.028.005.106v.206c0 .89.032 2.066.901 4.32-1.681-1.735-2.735-2.259-3.544-2.632a11 11 0 0 1-.282-.136l-.018-.011c-.445-.407-.825-.712-1.13-.957l-.009-.008c-.622-.5-.924-.745-1.358-1.425z"
    clip-rule="evenodd"
  />
</svg>
